X:1
T:the Tekeli Quick Step
T:the Tekeli Quick Step
T:James Hook
C:James Hook
L:1/8
M:6/8
K:D
V:1 treble 
V:1
 A |"D" d2 d dcd |"G" B2 d"D" A2 [Ad] |"D" ABc"Bm" def |"Em" g2 e"A7" c2 A |"D" d2 d dcd | %6
"G" B2 d"D" A2 [Ad] |"D" ABc def |"A7" [eg][ce][Ac]"D" d2 :: A |"D" d2 e f2 f |"D" fgf fed | %12
"A7"{f} e2 d{f} e2 d |"A7"{f} e2 d e2 f |"D" d2 e f2 f |"D" fgf fed |"A7"{f} e2 d e2 f | %17
"D" d3 d2 :| %18

